static/logos/okta-glyph-color.svg

<svg width="100" height="34" viewBox="0 0 100 34" fill="none" xmlns="http://www.w3.org/2000/svg">
<g clip-path="url(#clip0_1_1829)">
<path d="M12.575 8.44995C5.625 8.44995 0 14.075 0 21.025C0 27.975 5.625 33.6 12.575 33.6C19.525 33.6 25.15 27.975 25.15 21.025C25.15 14.075 19.525 8.44995 12.575 8.44995ZM12.575 27.325C9.1 27.325 6.275 24.5 6.275 21.025C6.275 17.55 9.1 14.725 12.575 14.725C16.05 14.725 18.875 17.55 18.875 21.025C18.875 24.5 16.05 27.325 12.575 27.325Z" fill="#00297A"/>
<path d="M34.6734 25.25C34.6734 24.25 35.8734 23.775 36.5734 24.475C39.7234 27.675 44.9234 33.175 44.9484 33.2C45.0234 33.275 45.0984 33.4 45.3984 33.5C45.5234 33.55 45.7234 33.55 45.9484 33.55H51.6234C52.6484 33.55 52.9484 32.375 52.4734 31.775L43.0734 22.15L42.5734 21.65C41.4984 20.375 41.6234 19.875 42.8484 18.575L50.2984 10.25C50.7734 9.65 50.4734 8.5 49.4234 8.5H44.2734C44.0734 8.5 43.9234 8.5 43.7734 8.55C43.4734 8.65 43.3484 8.75 43.2734 8.85C43.2484 8.875 39.1234 13.325 36.5734 16.05C35.8734 16.8 34.6234 16.3 34.6234 15.275V1C34.6234 0.275 34.0234 0 33.5484 0H29.3484C28.6234 0 28.2734 0.475 28.2734 0.9V32.55C28.2734 33.275 28.8734 33.475 29.3734 33.475H33.5734C34.2234 33.475 34.6484 33 34.6484 32.525V32.2V25.25H34.6734Z" fill="#00297A"/>
<path d="M68.9719 32.4L68.5219 28.2C68.4719 27.625 67.9219 27.225 67.3469 27.325C67.0219 27.375 66.6969 27.4 66.3719 27.4C63.0219 27.4 60.2969 24.775 60.0969 21.45C60.0969 21.35 60.0969 21.225 60.0969 21.1V15.95C60.0969 15.275 60.5969 14.725 61.2719 14.725H66.8969C67.2969 14.725 67.8969 14.375 67.8969 13.65V9.675C67.8969 8.9 67.3969 8.5 66.9469 8.5H61.2719C60.6219 8.5 60.0969 8.025 60.0719 7.375V1C60.0719 0.6 59.7719 0 58.9969 0H54.8219C54.2969 0 53.7969 0.325 53.7969 0.975C53.7969 0.975 53.7969 21.35 53.7969 21.45C53.9719 28.25 59.5469 33.675 66.3719 33.675C66.9469 33.675 67.4969 33.625 68.0469 33.55C68.6469 33.475 69.0469 32.975 68.9719 32.4Z" fill="#00297A"/>
<path d="M99.275 27.125C95.725 27.125 95.175 25.85 95.175 21.075C95.175 21.05 95.175 21.05 95.175 21.025V9.55005C95.175 9.15005 94.875 8.47505 94.075 8.47505H89.875C89.35 8.47505 88.775 8.90005 88.775 9.55005V10.075C86.95 9.02505 84.825 8.42505 82.575 8.42505C75.625 8.42505 70 14.05 70 21C70 27.95 75.625 33.575 82.575 33.575C85.7 33.575 88.55 32.425 90.75 30.55C91.925 32.35 93.825 33.55 96.8 33.575C97.3 33.575 100 33.675 100 32.4V27.925C100 27.55 99.7 27.125 99.275 27.125ZM82.6 27.325C79.125 27.325 76.3 24.5 76.3 21.025C76.3 17.55 79.125 14.725 82.6 14.725C86.075 14.725 88.9 17.55 88.9 21.025C88.875 24.5 86.05 27.325 82.6 27.325Z" fill="#00297A"/>
</g>
<defs>
<clipPath id="clip0_1_1829">
<rect width="100" height="33.75" fill="white"/>
</clipPath>
</defs>
</svg>

<svg xmlns="http://www.w3.org/2000/svg" width="188.235" height="64" fill="none" viewBox="0 0 100 34"><g fill="#00297A" clip-path="url(#a)"><path d="M12.575 8.45C5.625 8.45 0 14.075 0 21.025 0 27.975 5.625 33.6 12.575 33.6c6.95 0 12.575-5.625 12.575-12.575 0-6.95-5.625-12.575-12.575-12.575Zm0 18.875a6.306 6.306 0 0 1-6.3-6.3c0-3.475 2.825-6.3 6.3-6.3 3.475 0 6.3 2.825 6.3 6.3 0 3.475-2.825 6.3-6.3 6.3ZM34.673 25.25c0-1 1.2-1.475 1.9-.775 3.15 3.2 8.35 8.7 8.375 8.725.075.075.15.2.45.3.125.05.325.05.55.05h5.675c1.025 0 1.325-1.175.85-1.775l-9.4-9.625-.5-.5c-1.075-1.275-.95-1.775.275-3.075l7.45-8.325c.475-.6.175-1.75-.875-1.75h-5.15c-.2 0-.35 0-.5.05-.3.1-.425.2-.5.3-.025.025-4.15 4.475-6.7 7.2-.7.75-1.95.25-1.95-.775V1c0-.725-.6-1-1.075-1h-4.2c-.725 0-1.075.475-1.075.9v31.65c0 .725.6.925 1.1.925h4.2c.65 0 1.075-.475 1.075-.95V25.25h.025ZM68.972 32.4l-.45-4.2c-.05-.575-.6-.975-1.175-.875-.325.05-.65.075-.975.075-3.35 0-6.075-2.625-6.275-5.95v-5.5c0-.675.5-1.225 1.175-1.225h5.625c.4 0 1-.35 1-1.075V9.675c0-.775-.5-1.175-.95-1.175h-5.675c-.65 0-1.175-.475-1.2-1.125V1c0-.4-.3-1-1.075-1h-4.175c-.525 0-1.025.325-1.025.975V21.45c.175 6.8 5.75 12.225 12.575 12.225.575 0 1.125-.05 1.675-.125.6-.075 1-.575.925-1.15ZM99.275 27.125c-3.55 0-4.1-1.275-4.1-6.05V9.55c0-.4-.3-1.075-1.1-1.075h-4.2c-.525 0-1.1.425-1.1 1.075v.525a12.415 12.415 0 0 0-6.2-1.65C75.625 8.425 70 14.05 70 21c0 6.95 5.625 12.575 12.575 12.575 3.125 0 5.975-1.15 8.175-3.025 1.175 1.8 3.075 3 6.05 3.025.5 0 3.2.1 3.2-1.175v-4.475c0-.375-.3-.8-.725-.8Zm-16.675.2a6.306 6.306 0 0 1-6.3-6.3c0-3.475 2.825-6.3 6.3-6.3 3.475 0 6.3 2.825 6.3 6.3-.025 3.475-2.85 6.3-6.3 6.3Z"/></g><defs><clipPath id="a"><path fill="#fff" d="M0 0h100v33.75H0z"/></clipPath></defs></svg>
